svgs/revanced_youtube.svg

<svg xmlns="http://www.w3.org/2000/svg" viewBox="0 0 192 192"><path d="M62.028 160.024c-6.411-5.043-9.358-11.84-9.358-21.581v-8.561l-10.689 5.978c-11.731 6.56-16.669 7.31-22.277 3.382C16.049 136.682 16 136.114 16 96s.049-40.682 3.704-43.242c5.608-3.928 10.546-3.178 22.277 3.382l10.689 5.978v-8.561c0-16.143 8.106-25.062 22.777-25.062 8.546 0 11.12 1.225 51.659 24.585C174.11 80.165 176 81.825 176 96s-1.89 15.835-48.894 42.92c-40.539 23.36-43.113 24.585-51.659 24.585-6.596 0-10.173-.927-13.419-3.481Zm13.692-46.375c27.388-15.764 27.395-19.53.073-35.256-10.251-5.901-19.273-10.979-20.048-11.284-.775-.306-1.409 12.695-1.409 28.891 0 16.196.634 29.197 1.409 28.891.775-.305 9.764-5.364 19.975-11.242Z"/></svg>

<svg
    xmlns="http://www.w3.org/2000/svg"
    viewBox="0 0 192 192"
    id="vector">
    <g id="group">
        <path
            id="path"
            d="M 62.028 160.024 C 55.617 154.981 52.67 148.184 52.67 138.443 L 52.67 129.882 L 41.981 135.86 C 30.25 142.42 25.312 143.17 19.704 139.242 C 16.049 136.682 16 136.114 16 96 C 16 55.886 16.049 55.318 19.704 52.758 C 25.312 48.83 30.25 49.58 41.981 56.14 L 52.67 62.118 L 52.67 53.557 C 52.67 37.414 60.776 28.495 75.447 28.495 C 83.993 28.495 86.567 29.72 127.106 53.08 C 174.11 80.165 176 81.825 176 96 C 176 110.175 174.11 111.835 127.106 138.92 C 86.567 162.28 83.993 163.505 75.447 163.505 C 68.851 163.505 65.274 162.578 62.028 160.024 Z M 75.72 113.649 C 103.108 97.885 103.115 94.119 75.793 78.393 C 65.542 72.492 56.52 67.414 55.745 67.109 C 54.97 66.803 54.336 79.804 54.336 96 C 54.336 112.196 54.97 125.197 55.745 124.891 C 56.52 124.586 65.509 119.527 75.72 113.649 Z"
            fill="#000000"
            stroke-width="12"/>
    </g>
</svg>
